;FLAVOR:Marlin
;TIME:2432
;Filament used: 1.69096m, 0m
;Layer height: 0.3
;MINX:270.001
;MINY:100.001
;MINZ:0.3
;MAXX:329.999
;MAXY:159.999
;MAXZ:52.961
;firstAllToolChangeFixed
;Generated with StratosEngine 1.6.3
T0
M140 S70
M105
M190 S70
M104 S230
M105
M109 S230
M82 ;absolute extrusion mode
;Sliced at: Sun 18-06-2023 15:29:49
G21 ;metric values
M107
G28
M420 S1
G90 ;absolute positioning
G92 E0; reset extruder distance
G1 X-19 Y0 Z5 F5000 ;move nozzle up 5mm for safe homing
G29;ABL
M82 ;set extruder to absolute mode
M107 ;start with the fan off
G1 X-19 Y0 Z15.0 F5000 ;move the platform down 15mm
G92 E0 ;zero the extruded length
G1 F200 E3 ;extrude 3mm of feed stock
G1 F200 E0 ;Retract
G4 S2 ;Wait for material to fall
G1 F200 E3
G92 E0 ;zero the extruded length again
M83 ;relative extrusion mode
;LAYER_COUNT:176
;LAYER:0
M107
G1 F600 Z0.8
G0 F6000 X271.418 Y108.636 Z0.8
;TYPE:SKIRT
G1 F600 Z0.3
G1 F2400 E1.02495
G1 F2880 X272.489 Y106.727 E0.10921
G1 X273.827 Y104.994 E0.10923
G1 X275.402 Y103.474 E0.1092
G1 X277.182 Y102.2 E0.10921
G1 X279.129 Y101.198 E0.10924
G1 X281.2 Y100.491 E0.10918
G1 X283.353 Y100.092 E0.10924
G1 X285.001 Y100.001 E0.08234
G1 X314.999 Y100.001 E1.49661
G1 X317.182 Y100.161 E0.1092
G1 X319.319 Y100.637 E0.10923
G1 X321.364 Y101.418 E0.10921
G1 X323.273 Y102.489 E0.10921
G1 X325.006 Y103.827 E0.10923
G1 X326.526 Y105.402 E0.1092
G1 X327.8 Y107.182 E0.10921
G1 X328.802 Y109.129 E0.10924
G1 X329.509 Y111.2 E0.10918
G1 X329.908 Y113.353 E0.10924
G1 X329.999 Y115.001 E0.08234
G1 X329.999 Y144.999 E1.49661
G1 X329.839 Y147.182 E0.1092
G1 X329.363 Y149.319 E0.10923
G1 X328.582 Y151.364 E0.10921
G1 X327.511 Y153.273 E0.10921
G1 X326.173 Y155.006 E0.10923
G1 X324.598 Y156.526 E0.1092
G1 X322.818 Y157.8 E0.10921
G1 X320.871 Y158.802 E0.10924
G1 X318.8 Y159.509 E0.10918
G1 X316.647 Y159.908 E0.10924
G1 X314.999 Y159.999 E0.08234
G1 X285.001 Y159.999 E1.49661
G1 X282.818 Y159.839 E0.1092
G1 X280.681 Y159.363 E0.10923
G1 X278.636 Y158.582 E0.10921
G1 X276.727 Y157.511 E0.10921
G1 X274.994 Y156.173 E0.10923
G1 X273.474 Y154.598 E0.1092
G1 X272.2 Y152.818 E0.10921
G1 X271.198 Y150.871 E0.10924
G1 X270.491 Y148.8 E0.10918
G1 X270.092 Y146.647 E0.10924
G1 X270.001 Y144.999 E0.08234
G1 X270.001 Y115.001 E1.49661
G1 X270.161 Y112.818 E0.1092
G1 X270.637 Y110.681 E0.10923
G1 X271.418 Y108.636 E0.10921
G0 F6000 X271.818 Y108.727
G1 F2880 X272.887 Y106.851 E0.10772
G1 X274.222 Y105.153 E0.10776
G1 X275.793 Y103.671 E0.10775
G1 X277.565 Y102.437 E0.10773
G1 X279.499 Y101.477 E0.10772
G1 X281.555 Y100.814 E0.10778
G1 X283.685 Y100.46 E0.10772
G1 X285.001 Y100.401 E0.06572
G1 X314.999 Y100.401 E1.49661
G1 X317.153 Y100.561 E0.10776
G1 X319.259 Y101.036 E0.10771
G1 X321.273 Y101.818 E0.10779
G1 X323.149 Y102.887 E0.10772
G1 X324.847 Y104.222 E0.10776
G1 X326.329 Y105.793 E0.10775
G1 X327.563 Y107.565 E0.10773
G1 X328.523 Y109.499 E0.10772
G1 X329.186 Y111.555 E0.10778
G1 X329.54 Y113.685 E0.10772
G1 X329.599 Y115.001 E0.06572
G1 X329.599 Y144.999 E1.49661
G1 X329.439 Y147.153 E0.10776
G1 X328.964 Y149.259 E0.10771
G1 X328.182 Y151.273 E0.10779
G1 X327.113 Y153.149 E0.10772
G1 X325.778 Y154.847 E0.10776
G1 X324.207 Y156.329 E0.10775
G1 X322.435 Y157.563 E0.10773
G1 X320.501 Y158.523 E0.10772
G1 X318.445 Y159.186 E0.10778
G1 X316.315 Y159.54 E0.10772
G1 X314.999 Y159.599 E0.06572
G1 X285.001 Y159.599 E1.49661
G1 X282.847 Y159.439 E0.10776
G1 X280.741 Y158.964 E0.10771
G1 X278.727 Y158.182 E0.10779
G1 X276.851 Y157.113 E0.10772
G1 X275.153 Y155.778 E0.10776
G1 X273.671 Y154.207 E0.10775
G1 X272.437 Y152.435 E0.10773
G1 X271.477 Y150.501 E0.10772
G1 X270.814 Y148.445 E0.10778
G1 X270.46 Y146.315 E0.10772
G1 X270.401 Y144.999 E0.06572
G1 X270.401 Y115.001 E1.49661
G1 X270.561 Y112.847 E0.10776
G1 X271.036 Y110.741 E0.10771
G1 X271.818 Y108.727 E0.10779
G0 F6000 X272.217 Y108.82
G1 F2880 X273.285 Y106.977 E0.10627
G1 X274.617 Y105.315 E0.10626
G1 X276.183 Y103.871 E0.10627
G1 X277.946 Y102.677 E0.10623
G1 X279.869 Y101.761 E0.10627
G1 X281.907 Y101.142 E0.10626
G1 X284.014 Y100.835 E0.10623
G1 X285.001 Y100.801 E0.04927
G1 X314.999 Y100.801 E1.49661
G1 X317.123 Y100.961 E0.10627
G1 X319.199 Y101.436 E0.10625
G1 X321.18 Y102.217 E0.10624
G1 X323.023 Y103.285 E0.10627
G1 X324.685 Y104.617 E0.10626
G1 X326.129 Y106.183 E0.10627
G1 X327.323 Y107.946 E0.10623
G1 X328.239 Y109.869 E0.10627
G1 X328.858 Y111.907 E0.10626
G1 X329.165 Y114.014 E0.10623
G1 X329.199 Y115.001 E0.04927
G1 X329.199 Y144.999 E1.49661
G1 X329.039 Y147.123 E0.10627
G1 X328.564 Y149.199 E0.10625
G1 X327.783 Y151.18 E0.10624
G1 X326.715 Y153.023 E0.10627
G1 X325.383 Y154.685 E0.10626
G1 X323.817 Y156.129 E0.10627
G1 X322.054 Y157.323 E0.10623
G1 X320.131 Y158.239 E0.10627
G1 X318.093 Y158.858 E0.10626
G1 X315.986 Y159.165 E0.10623
G1 X314.999 Y159.199 E0.04927
G1 X285.001 Y159.199 E1.49661
G1 X282.877 Y159.039 E0.10627
G1 X280.801 Y158.564 E0.10625
G1 X278.82 Y157.783 E0.10624
G1 X276.977 Y156.715 E0.10627
G1 X275.315 Y155.383 E0.10626
G1 X273.871 Y153.817 E0.10627
G1 X272.677 Y152.054 E0.10623
G1 X271.761 Y150.131 E0.10627
G1 X271.142 Y148.093 E0.10626
G1 X270.835 Y145.986 E0.10623
G1 X270.801 Y144.999 E0.04927
G1 X270.801 Y115.001 E1.49661
G1 X270.961 Y112.877 E0.10627
G1 X271.436 Y110.801 E0.10625
G1 X272.217 Y108.82 E0.10624
G0 F6000 X272.616 Y108.913
G1 F2880 X273.683 Y107.105 E0.10474
G1 X275.012 Y105.48 E0.10473
G1 X276.572 Y104.074 E0.10477
G1 X278.327 Y102.922 E0.10474
G1 X280.237 Y102.05 E0.10475
G1 X282.256 Y101.477 E0.10471
G1 X284.34 Y101.217 E0.10478
G1 X285.001 Y101.201 E0.03299
G1 X314.999 Y101.201 E1.49661
G1 X317.092 Y101.361 E0.10472
G1 X319.137 Y101.836 E0.10474
G1 X321.087 Y102.616 E0.10478
G1 X322.895 Y103.683 E0.10474
G1 X324.52 Y105.012 E0.10473
G1 X325.926 Y106.572 E0.10477
G1 X327.078 Y108.327 E0.10474
G1 X327.95 Y110.237 E0.10475
G1 X328.523 Y112.256 E0.10471
G1 X328.783 Y114.34 E0.10478
G1 X328.799 Y115.001 E0.03299
G1 X328.799 Y144.999 E1.49661
G1 X328.639 Y147.092 E0.10472
G1 X328.164 Y149.137 E0.10474
G1 X327.384 Y151.087 E0.10478
G1 X326.317 Y152.895 E0.10474
G1 X324.988 Y154.52 E0.10473
G1 X323.428 Y155.926 E0.10477
G1 X321.673 Y157.078 E0.10474
G1 X319.763 Y157.95 E0.10475
G1 X317.744 Y158.523 E0.10471
G1 X315.66 Y158.783 E0.10478
G1 X314.999 Y158.799 E0.03299
G1 X285.001 Y158.799 E1.49661
G1 X282.908 Y158.639 E0.10472
G1 X280.863 Y158.164 E0.10474
G1 X278.913 Y157.384 E0.10478
G1 X277.105 Y156.317 E0.10474
G1 X275.48 Y154.988 E0.10473
G1 X274.074 Y153.428 E0.10477
G1 X272.922 Y151.673 E0.10474
G1 X272.05 Y149.763 E0.10475
G1 X271.477 Y147.744 E0.10471
G1 X271.217 Y145.66 E0.10478
G1 X271.201 Y144.999 E0.03299
G1 X271.201 Y115.001 E1.49661
G1 X271.361 Y112.908 E0.10472
G1 X271.836 Y110.863 E0.10474
G1 X272.616 Y108.913 E0.10478
G0 F6000 X273.016 Y109.009
G1 F2880 X274.081 Y107.235 E0.10323
G1 X275.406 Y105.647 E0.10318
G1 X276.961 Y104.281 E0.10326
G1 X278.707 Y103.171 E0.10322
G1 X280.602 Y102.343 E0.10317
G1 X282.603 Y101.817 E0.10322
G1 X285.001 Y101.601 E0.12012
G1 X314.999 Y101.601 E1.49661
G1 X317.062 Y101.761 E0.10323
G1 X319.075 Y102.236 E0.10319
G1 X320.991 Y103.016 E0.10321
G1 X322.765 Y104.081 E0.10323
G1 X324.353 Y105.406 E0.10318
G1 X325.719 Y106.961 E0.10326
G1 X326.829 Y108.707 E0.10322
G1 X327.657 Y110.602 E0.10317
G1 X328.183 Y112.603 E0.10322
G1 X328.399 Y115.001 E0.12012
G1 X328.399 Y144.999 E1.49661
G1 X328.239 Y147.062 E0.10323
G1 X327.764 Y149.075 E0.10319
G1 X326.984 Y150.991 E0.10321
G1 X325.919 Y152.765 E0.10323
G1 X324.594 Y154.353 E0.10318
G1 X323.039 Y155.719 E0.10326
G1 X321.293 Y156.829 E0.10322
G1 X319.398 Y157.657 E0.10317
G1 X317.397 Y158.183 E0.10322
G1 X314.999 Y158.399 E0.12012
G1 X285.001 Y158.399 E1.49661
G1 X282.938 Y158.239 E0.10323
G1 X280.925 Y157.764 E0.10319
G1 X279.009 Y156.984 E0.10321
G1 X277.235 Y155.919 E0.10323
G1 X275.647 Y154.594 E0.10318
G1 X274.281 Y153.039 E0.10326
G1 X273.171 Y151.293 E0.10322
G1 X272.343 Y149.398 E0.10317
G1 X271.817 Y147.397 E0.10322
G1 X271.601 Y144.999 E0.12012
G1 X271.601 Y115.001 E1.49661
G1 X271.761 Y112.938 E0.10323
G1 X272.236 Y110.925 E0.10319
G1 X273.016 Y109.009 E0.10321
G0 F6000 X273.415 Y109.105
G1 F2880 X274.478 Y107.367 E0.10164
G1 X275.8 Y105.817 E0.10164
G1 X277.349 Y104.492 E0.1017
G1 X279.085 Y103.425 E0.10166
G1 X280.966 Y102.643 E0.10163
G1 X282.947 Y102.164 E0.10168
G1 X285.001 Y102.001 E0.1028
G1 X314.999 Y102.001 E1.49661
G1 X317.03 Y102.161 E0.10164
G1 X319.012 Y102.636 E0.10168
G1 X320.895 Y103.415 E0.10167
G1 X322.633 Y104.478 E0.10164
G1 X324.183 Y105.8 E0.10164
G1 X325.508 Y107.349 E0.1017
G1 X326.575 Y109.085 E0.10166
G1 X327.357 Y110.966 E0.10163
G1 X327.836 Y112.947 E0.10168
G1 X327.999 Y115.001 E0.1028
G1 X327.999 Y144.999 E1.49661
G1 X327.839 Y147.03 E0.10164
G1 X327.364 Y149.012 E0.10168
G1 X326.585 Y150.895 E0.10167
G1 X325.522 Y152.633 E0.10164
G1 X324.2 Y154.183 E0.10164
G1 X322.651 Y155.508 E0.1017
G1 X320.915 Y156.575 E0.10166
G1 X319.034 Y157.357 E0.10163
G1 X317.053 Y157.836 E0.10168
G1 X314.999 Y157.999 E0.1028
G1 X285.001 Y157.999 E1.49661
G1 X282.97 Y157.839 E0.10164
G1 X280.988 Y157.364 E0.10168
G1 X279.105 Y156.585 E0.10167
G1 X277.367 Y155.522 E0.10164
G1 X275.817 Y154.2 E0.10164
G1 X274.492 Y152.651 E0.1017
G1 X273.425 Y150.915 E0.10166
G1 X272.643 Y149.034 E0.10163
G1 X272.164 Y147.053 E0.10168
G1 X272.001 Y144.999 E0.1028
G1 X272.001 Y115.001 E1.49661
G1 X272.161 Y112.97 E0.10164
G1 X272.636 Y110.988 E0.10168
G1 X273.415 Y109.105 E0.10167
G0 F6000 X273.814 Y109.204
G1 F2880 X274.876 Y107.502 E0.10009
G1 X276.194 Y105.99 E0.10007
G1 X277.736 Y104.706 E0.10011
G1 X279.462 Y103.684 E0.10007
G1 X281.328 Y102.948 E0.10007
G1 X283.287 Y102.518 E0.10006
G1 X285.001 Y102.401 E0.08571
G1 X314.999 Y102.401 E1.49661
G1 X316.999 Y102.561 E0.1001
G1 X318.948 Y103.036 E0.10008
G1 X320.796 Y103.814 E0.10003
G1 X322.498 Y104.876 E0.10009
G1 X324.01 Y106.194 E0.10007
G1 X325.294 Y107.736 E0.10011
G1 X326.316 Y109.462 E0.10007
G1 X327.052 Y111.328 E0.10007
G1 X327.482 Y113.287 E0.10006
G1 X327.599 Y115.001 E0.08571
G1 X327.599 Y144.999 E1.49661
G1 X327.439 Y146.999 E0.1001
G1 X326.964 Y148.948 E0.10008
G1 X326.186 Y150.796 E0.10003
G1 X325.124 Y152.498 E0.10009
G1 X323.806 Y154.01 E0.10007
G1 X322.264 Y155.294 E0.10011
G1 X320.538 Y156.316 E0.10007
G1 X318.672 Y157.052 E0.10007
G1 X316.713 Y157.482 E0.10006
G1 X314.999 Y157.599 E0.08571
G1 X285.001 Y157.599 E1.49661
G1 X283.001 Y157.439 E0.1001
G1 X281.052 Y156.964 E0.10008
G1 X279.204 Y156.186 E0.10003
G1 X277.502 Y155.124 E0.10009
G1 X275.99 Y153.806 E0.10007
G1 X274.706 Y152.264 E0.10011
G1 X273.684 Y150.538 E0.10007
G1 X272.948 Y148.672 E0.10007
G1 X272.518 Y146.713 E0.10006
G1 X272.401 Y144.999 E0.08571
G1 X272.401 Y115.001 E1.49661
G1 X272.561 Y113.001 E0.1001
G1 X273.036 Y111.052 E0.10008
G1 X273.814 Y109.204 E0.10003
G0 F6000 X274.213 Y109.304
G1 F2880 X275.273 Y107.638 E0.09851
G1 X276.588 Y106.166 E0.09847
G1 X278.122 Y104.925 E0.09844
G1 X279.837 Y103.948 E0.09847
G1 X281.687 Y103.26 E0.09847
G1 X283.624 Y102.879 E0.09849
G1 X285.001 Y102.801 E0.06881
G1 X314.999 Y102.801 E1.49661
G1 X316.966 Y102.961 E0.09846
G1 X318.882 Y103.436 E0.09848
G1 X320.696 Y104.213 E0.09845
G1 X322.362 Y105.273 E0.09851
G1 X323.834 Y106.588 E0.09847
G1 X325.075 Y108.122 E0.09844
G1 X326.052 Y109.837 E0.09847
G1 X326.74 Y111.687 E0.09847
G1 X327.121 Y113.624 E0.09849
G1 X327.199 Y115.001 E0.06881
G1 X327.199 Y144.999 E1.49661
G1 X327.039 Y146.966 E0.09846
G1 X326.564 Y148.882 E0.09848
G1 X325.787 Y150.696 E0.09845
G1 X324.727 Y152.362 E0.09851
G1 X323.412 Y153.834 E0.09847
G1 X321.878 Y155.075 E0.09844
G1 X320.163 Y156.052 E0.09847
G1 X318.313 Y156.74 E0.09847
G1 X316.376 Y157.121 E0.09849
G1 X314.999 Y157.199 E0.06881
G1 X285.001 Y157.199 E1.49661
G1 X283.034 Y157.039 E0.09846
G1 X281.118 Y156.564 E0.09848
G1 X279.304 Y155.787 E0.09845
G1 X277.638 Y154.727 E0.09851
G1 X276.166 Y153.412 E0.09847
G1 X274.925 Y151.878 E0.09844
G1 X273.948 Y150.163 E0.09847
G1 X273.26 Y148.313 E0.09847
G1 X272.879 Y146.376 E0.09849
G1 X272.801 Y144.999 E0.06881
G1 X272.801 Y115.001 E1.49661
G1 X272.961 Y113.034 E0.09846
G1 X273.436 Y111.118 E0.09848
G1 X274.213 Y109.304 E0.09845
G0 F6000 X274.612 Y109.405
G1 F2880 X275.67 Y107.778 E0.09682
G1 X276.981 Y106.346 E0.09686
G1 X278.508 Y105.148 E0.09683
G1 X280.211 Y104.217 E0.09683
G1 X282.044 Y103.577 E0.09686
G1 X283.957 Y103.247 E0.09685
G1 X285.001 Y103.201 E0.05214
G1 X314.999 Y103.201 E1.49661
G1 X316.934 Y103.361 E0.09687
G1 X318.816 Y103.835 E0.09683
G1 X320.595 Y104.612 E0.09685
G1 X322.222 Y105.67 E0.09682
G1 X323.654 Y106.981 E0.09686
G1 X324.852 Y108.508 E0.09683
G1 X325.783 Y110.211 E0.09683
G1 X326.423 Y112.044 E0.09686
G1 X326.753 Y113.957 E0.09685
G1 X326.799 Y115.001 E0.05214
G1 X326.799 Y144.999 E1.49661
G1 X326.639 Y146.934 E0.09687
G1 X326.165 Y148.816 E0.09683
G1 X325.388 Y150.595 E0.09685
G1 X324.33 Y152.222 E0.09682
G1 X323.019 Y153.654 E0.09686
G1 X321.492 Y154.852 E0.09683
G1 X319.789 Y155.783 E0.09683
G1 X317.956 Y156.423 E0.09686
G1 X316.043 Y156.753 E0.09685
G1 X314.999 Y156.799 E0.05214
G1 X285.001 Y156.799 E1.49661
G1 X283.066 Y156.639 E0.09687
G1 X281.184 Y156.165 E0.09683
G1 X279.405 Y155.388 E0.09685
G1 X277.778 Y154.33 E0.09682
G1 X276.346 Y153.019 E0.09686
G1 X275.148 Y151.492 E0.09683
G1 X274.217 Y149.789 E0.09683
G1 X273.577 Y147.956 E0.09686
G1 X273.247 Y146.043 E0.09685
G1 X273.201 Y144.999 E0.05214
G1 X273.201 Y115.001 E1.49661
G1 X273.361 Y113.066 E0.09687
G1 X273.835 Y111.184 E0.09683
G1 X274.612 Y109.405 E0.09685
G0 F6000 X275.011 Y109.509
G1 F2880 X276.067 Y107.92 E0.09519
G1 X277.373 Y106.529 E0.09519
G1 X278.893 Y105.376 E0.09518
G1 X280.583 Y104.492 E0.09515
G1 X282.398 Y103.902 E0.09521
G1 X284.285 Y103.623 E0.09517
G1 X285.001 Y103.601 E0.03574
G1 X314.999 Y103.601 E1.49661
G1 X316.9 Y103.761 E0.09518
G1 X318.748 Y104.235 E0.09518
G1 X320.491 Y105.011 E0.09519
G1 X322.08 Y106.067 E0.09519
G1 X323.471 Y107.373 E0.09519
G1 X324.624 Y108.893 E0.09518
G1 X325.508 Y110.583 E0.09515
G1 X326.098 Y112.398 E0.09521
G1 X326.377 Y114.285 E0.09517
G1 X326.399 Y115.001 E0.03574
G1 X326.399 Y144.999 E1.49661
G1 X326.239 Y146.9 E0.09518
G1 X325.765 Y148.748 E0.09518
G1 X324.989 Y150.491 E0.09519
G1 X323.933 Y152.08 E0.09519
G1 X322.627 Y153.471 E0.09519
G1 X321.107 Y154.624 E0.09518
G1 X319.417 Y155.508 E0.09515
G1 X317.602 Y156.098 E0.09521
G1 X315.715 Y156.377 E0.09517
G1 X314.999 Y156.399 E0.03574
G1 X285.001 Y156.399 E1.49661
G1 X283.1 Y156.239 E0.09518
G1 X281.252 Y155.765 E0.09518
G1 X279.509 Y154.989 E0.09519
G1 X277.92 Y153.933 E0.09519
G1 X276.529 Y152.627 E0.09519
G1 X275.376 Y151.107 E0.09518
G1 X274.492 Y149.417 E0.09515
G1 X273.902 Y147.602 E0.09521
G1 X273.623 Y145.715 E0.09517
G1 X273.601 Y144.999 E0.03574
G1 X273.601 Y115.001 E1.49661
G1 X273.761 Y113.1 E0.09518
G1 X274.235 Y111.252 E0.09518
G1 X275.011 Y109.509 E0.09519
G0 F6000 X275.41 Y109.615
G1 F2880 X276.464 Y108.065 E0.09351
G1 X277.765 Y106.716 E0.0935
G1 X279.276 Y105.608 E0.09348
G1 X280.954 Y104.773 E0.09351
G1 X282.749 Y104.234 E0.0935
G1 X285.001 Y104.001 E0.11295
G1 X314.999 Y104.001 E1.49661
G1 X316.866 Y104.161 E0.09349
G1 X318.679 Y104.635 E0.09349
G1 X320.385 Y105.41 E0.09348
G1 X321.935 Y106.464 E0.09351
G1 X323.284 Y107.765 E0.0935
G1 X324.392 Y109.276 E0.09348
G1 X325.227 Y110.954 E0.09351
G1 X325.766 Y112.749 E0.0935
G1 X325.999 Y115.001 E0.11295
G1 X325.999 Y144.999 E1.49661
G1 X325.839 Y146.866 E0.09349
G1 X325.365 Y148.679 E0.09349
G1 X324.59 Y150.385 E0.09348
G1 X323.536 Y151.935 E0.09351
G1 X322.235 Y153.284 E0.0935
G1 X320.724 Y154.392 E0.09348
G1 X319.046 Y155.227 E0.09351
G1 X317.251 Y155.766 E0.0935
G1 X314.999 Y155.999 E0.11295
G1 X285.001 Y155.999 E1.49661
G1 X283.134 Y155.839 E0.09349
G1 X281.321 Y155.365 E0.09349
G1 X279.615 Y154.59 E0.09348
G1 X278.065 Y153.536 E0.09351
G1 X276.716 Y152.235 E0.0935
G1 X275.608 Y150.724 E0.09348
G1 X274.773 Y149.046 E0.09351
G1 X274.234 Y147.251 E0.0935
G1 X274.001 Y144.999 E0.11295
G1 X274.001 Y115.001 E1.49661
G1 X274.161 Y113.134 E0.09349
